X:1
T:Title
%%score { ( 1 3 ) | 2 }
L:1/8
M:4/4
K:Eb
V:1 treble nm="Grand Piano"
V:3 treble 
V:2 bass 
V:1
 z4 z2[Q:1/4=118] [GB]2 | [Ge]2 [GB]2 [GB]>[B,FA] [B,EG]>[EAc] | [EGB]4 [B,EG]3 [B,EG] | F2 z2 z4 | %4
[M:3/4] [EB]4 [EG]2 |[M:1/4] [GB]2 |[M:4/4] [Ge]2 [GB]2 [GB]>[FA] [EG]>[Ac] | %7
 [GB]4 [EG]2 [Ge]>[Ge] | [EB]2 [B,EG]2 [B,DG] [A,DF]3 |[M:9/8] [G,E]8- [G,E] |] %10
V:2
 z4 z2 [E,B,]2 | [E,B,]2 [E,E]2 [E,E]>E, E,>E, | E,4 E,3 E, | D,2 C,2 B,,3 [B,,A,] | %4
[M:3/4] [E,G,]4 [E,B,]2 |[M:1/4] [E,E]2 |[M:4/4] [E,B,]2 [E,E]2 [E,E]>[E,B,] [E,B,]>[E,E] | %7
 [E,E]4 [E,B,]2 [E,B,]>[E,B,] | [E,G,]2 E,2 B,, B,,3 |[M:9/8] E,8- E, |] %10
V:3
 x8 | x8 | x8 | [B,A]2- [B,EA]2 [B,DF]3 [Dc] |[M:3/4] x6 |[M:1/4] x2 |[M:4/4] x8 | x8 | x8 | %9
[M:9/8] x9 |] %10

